modules/coreui-icons-free/icons/face.svg

<!-- Generated by IcoMoon.io -->
<svg version="1.1" xmlns="http://www.w3.org/2000/svg" width="24" height="24" viewBox="0 0 24 24">
<title>face</title>
<path d="M12 0.75c-6.213 0-11.25 5.037-11.25 11.25s5.037 11.25 11.25 11.25 11.25-5.037 11.25-11.25-5.037-11.25-11.25-11.25zM18.894 18.894c-1.757 1.752-4.182 2.835-6.859 2.835-5.365 0-9.715-4.349-9.715-9.715s4.349-9.715 9.715-9.715c5.365 0 9.715 4.349 9.715 9.715 0 1.365-0.282 2.664-0.79 3.843l0.024-0.063c-0.517 1.205-1.222 2.234-2.090 3.099l-0 0z"></path>
<path d="M6 9h1.875v1.875h-1.875v-1.875z"></path>
<path d="M15.75 9h1.875v1.875h-1.875v-1.875z"></path>
<path d="M10.875 14.388c0-0.023 0.003-0.046 0.010-0.067l-0 0.002 1.491-5.218v-1.23h-1.5v1.020l-1.433 5.016c-0.042 0.143-0.067 0.307-0.067 0.477 0 0.959 0.778 1.737 1.737 1.737 0 0 0 0 0 0h2.763v-1.5h-2.763c-0.131-0-0.237-0.106-0.237-0.237v-0z"></path>
</svg>

<svg xmlns="http://www.w3.org/2000/svg" width="24" height="24" viewBox="0 0 24 24"><path d="M12 .75C5.787.75.75 5.787.75 12S5.787 23.25 12 23.25 23.25 18.213 23.25 12 18.213.75 12 .75zm6.894 18.144a9.684 9.684 0 01-6.859 2.835c-5.365 0-9.715-4.349-9.715-9.715s4.349-9.715 9.715-9.715c5.365 0 9.715 4.349 9.715 9.715a9.688 9.688 0 01-.79 3.843l.024-.063a9.768 9.768 0 01-2.09 3.099z"/><path d="M6 9h1.875v1.875H6V9zM15.75 9h1.875v1.875H15.75V9zM10.875 14.388c0-.023.003-.046.01-.067v.002l1.491-5.218v-1.23h-1.5v1.02l-1.433 5.016a1.737 1.737 0 001.67 2.214h2.763v-1.5h-2.763a.237.237 0 01-.237-.237z"/></svg>
